svgs/sharp-light/arrow-down-up-across-line.svg

<svg xmlns="http://www.w3.org/2000/svg" viewBox="0 0 576 512"><!--! Font Awesome Pro 6.6.0 by @fontawesome - https://fontawesome.com License - https://fontawesome.com/license (Commercial License) Copyright 2024 Fonticons, Inc. --><path d="M160 510.6l11.3-11.3 96-96L278.6 392 256 369.4l-11.3 11.3L176 449.4 176 272l384 0 16 0 0-32-16 0-128 0 0-177.4 68.7 68.7L512 142.6 534.6 120l-11.3-11.3-96-96L416 1.4 404.7 12.7l-96 96L297.4 120 320 142.6l11.3-11.3L400 62.6 400 240 16 240 0 240l0 32 16 0 128 0 0 177.4L75.3 380.7 64 369.4 41.4 392l11.3 11.3 96 96L160 510.6zM144 48l0 144 32 0 0-144 0-16-32 0 0 16zM400 320l0 144 0 16 32 0 0-16 0-144-32 0z"/></svg>

<svg xmlns="http://www.w3.org/2000/svg" viewBox="0 0 576 512"><!--! Font Awesome Pro 6.4.0 by @fontawesome - https://fontawesome.com License - https://fontawesome.com/license (Commercial License) Copyright 2023 Fonticons, Inc. --><path d="M160 510.6l11.3-11.3 96-96L278.6 392 256 369.4l-11.3 11.3L176 449.4V272H560h16V240H560 432V62.6l68.7 68.7L512 142.6 534.6 120l-11.3-11.3-96-96L416 1.4 404.7 12.7l-96 96L297.4 120 320 142.6l11.3-11.3L400 62.6V240H16 0v32H16 144V449.4L75.3 380.7 64 369.4 41.4 392l11.3 11.3 96 96L160 510.6zM144 48V192h32V48 32H144V48zM400 320V464v16h32V464 320H400z"/></svg>
